X: 053
M: C|
L: 1/8
K: C
c2d2 e2f2 | gfed c2g2 | abag fgfe | dcBA G2g2 |\
abag f2e2 | dcBA G2(gf) | f2g2 g2^f2 | g6 :|
|: g2 |\
abag fgfe | dcBA G2g2 | abag f2e2 | d6 G2 |\
c3d cdef | g3f agfe | dcBd c2B2 | c6 :|

